X:1
T:I set the Lord still in my sight
T:John Arnold
T:Text: Thomas Sternhold, on Ps. 16
T:This edition by Edmund Gooch released into the public domain, December 2011.
T:I set the Lord still in my sight
T:PSALM XVI, Verse 8, 9, 10, 11.
C:John Arnold
Z:Text: Thomas Sternhold, on Ps. 16
%%score [ 1 2 3 4 ]
L:1/8
M:3/2
K:G
V:1 treble nm="SOPRANO" snm="S."
V:2 treble nm="ALTO" snm="A."
V:3 treble-8 transpose=-12 nm="TENOR" snm="T."
V:4 bass nm="BASS" snm="B."
V:1
 G4 | (B4 A4) G4 | (G4 F4) B4 | A8 G4 | F8 F4 | G8 A4 | B8 A4 | A8 A4 | G8 F4 | G8 d4 | %10
w: Thou|wilt _ not|leave _ my|soul in|hell, Be-|cause thou|lov- est|me, Nor|yet wilt|give thy|
w: I|set _ the|Lord _ still|in my|sight, And|trust him|o- ver|all; For|he doth|stand on|
w: Where-|fore _ my|heart _ and|tongue al-|so Re-|joice ex-|ceed- ing-|ly: My|flesh like-|wise doth|
 (d3 c B4) A4 | A8 A4 | G8 B4 | (c4 B4) A4 | G8 |] %15
w: ho- * * ly|one Cor-|rup- tion|for _ to|see;|
w: my _ _ right|hand, There-|fore I|shall _ not|fall.|
w: rest _ _ in|hope To|rise a-|gain, _ for|why?|
V:2
 D4 | D8 D4 | D8 D4 | E8 (G2 FE) | D8 D4 | D8 D4 | D8 ^C4 | D8 D4 | B,8 D4 | D8 D4 | G8 E4 | %11
w: Thou|wilt not|leave my|soul in _ _|hell, Be-|cause thou|lov- est|me, Nor|yet wilt|give thy|ho- ly|
w: I|set the|Lord still|in my _ _|sight, And|trust him|o- ver|all; For|he doth|stand on|my right|
w: Where-|fore my|heart and|tongue al- * *|so Re-|joice ex-|ceed- ing-|ly: My|flesh like-|wise doth|rest in|
 F8 F4 | E8 D4 | E8 D4 | D8 |] %15
w: one Cor-|rup- tion|for to|see;|
w: hand, There-|fore I|shall not|fall.|
w: hope To|rise a-|gain, for|why?|
V:3
 G4 | (G4 F4) B4 | (B4 A4) d4 | (G4 c4) B4 | A8 A4 | (B3 A G4) F4 | (G4 F4) E4 | D8 D4 | %8
w: Thou|wilt _ not|leave _ my|soul _ in|hell, Be-|cause _ _ thou|lov- * est|me, Nor|
w: I|set _ the|Lord _ still|in _ my|sight, And|trust _ _ him|o- * ver|all; For|
w: Where-|fore _ my|heart _ and|tongue _ al-|so Re-|joice _ _ ex-|ceed- * ing-|ly: My|
 (G3 F G4) A4 | B8 A4 | (B3 A B4) ^c4 | d8 d4 | (G4 c4) B4 | (A4 G4) F4 | G8 |] %15
w: yet _ _ wilt|give thy|ho- * * ly|one Cor-|rup- * tion|for _ to|see;|
w: he _ _ doth|stand on|my _ _ right|hand, There-|fore _ I|shall _ not|fall.|
w: flesh _ _ like-|wise doth|rest _ _ in|hope To|rise _ a-|gain, _ for|why?|
V:4
 G,,4 | (B,,4 D,4) G,4 | (G,4 D,4) B,,4 | C,8 G,,4 | D,8 D,4 | (G,3 F, E,4) D,4 | G,,8 A,,4 | %7
w: Thou|wilt _ not|leave _ my|soul in|hell, Be-|cause _ _ thou|lov- est|
w: I|set _ the|Lord _ still|in my|sight, And|trust _ _ him|o- ver|
w: Where-|fore _ my|heart _ and|tongue al-|so Re-|joice _ _ ex-|ceed- ing-|
"^Notes: Original clefs are treble, alto, tenor and bass. The text of the first verse only is underlaid in the source, withthe three subsquent verses given here printed after the music: these have been underlaid editorially." D,8 D,4 | %8
w: me, Nor|
w: all; For|
w: ly: My|
 E,8 D,4 | G,8 F,4 | G,8 A,4 | D,8 D,4 | (E,3 D, C,4) G,4 | C,8 D,4 | G,,8 |] %15
w: yet wilt|give thy|ho- ly|one Cor-|rup- * * tion|for to|see;|
w: he doth|stand on|my right|hand, There-|fore _ _ I|shall not|fall.|
w: flesh like-|wise doth|rest in|hope To|rise _ _ a-|gain, for|why?|

